X: 21
T: Irish Trott
O: "In the Beggars Opera"
%R: jig
B: "The Hibernian Muse" p.13 #2
F: http://imslp.org/wiki/The_Hibernian_Muse_%28Various%29
Z: 2015 John Chambers <jc:trillian.mit.edu>
P: No. XXI.
M: 6/8
L: 1/8
K: D
% - - - - - - - - - - - - - - - - - - - - - - - - - - - - -
V: 1
|: efg gag | efg gag | fdf ecA | d2d Tf2d :|\
|: ecA ABA | ecA ABA | fga ecA | d2d f2d :|
% - - - - - - - - - - - - - - - - - - - - - - - - - - - - -
V: 2 clef=bass middle=d
|: a3  a3  | a3  a3  | d'3 a3  | d3  d3  :|\
|: c2z c2z | c2z c2z | d2f a2A | d3  d3  :|

%%sep 2 1 500
%%sep 1 1 500

